berita.svg

<svg xmlns="http://www.w3.org/2000/svg" width="27" height="25" fill="none" stroke="#9b47b0" stroke-width=".364641" stroke-miterlimit="10" xmlns:v="https://vecta.io/nano"><path d="M6.5579 22.1949l-.80061-3.0219c-.75435-.1338-1.5087-.5423-2.05667-1.211l-.0854.0144c-.56576.0723-1.1244-.0397-1.619-.3289-.59778-.3506-1.024775-.9145-1.202687-1.5905l-.348709-1.3086c-.177912-.6759-.088956-1.3844.256194-1.9917.298893-.5314.761462-.929 1.320112-1.1423.06761-.4085.20994-.8025.41276-1.1604.47324-.83498 1.24183-1.40974 2.10648-1.6447 3.02807-.82779 3.08144-.75188 4.03861-1.40616l5.49042-4.17872c.6654-1.4423 1.6759-2.382153 2.9355-2.725559 1.6261-.4446216 3.3946.191584 4.978 1.789329 1.5016 1.5146 2.7043 3.77386 3.3875 6.35483.6547 2.47248.7436 4.96308.2526 7.00548-.5551 2.3135-1.7862 3.8389-3.4729 4.3016-.1672.047-.3415.0796-.5123.1049-1.1067.1482-2.2702-.188-3.3733-.9688l-5.9921-.723.5587 2.1147c.4661 1.7604-.5587 3.5678-2.2951 4.0414s-3.51553-.564-3.9781-2.3244z" fill="#9b47b0"/><path d="M7.26969 22.1949l-.80061-3.022c-.75435-.1337-1.5087-.5422-2.05667-1.2109l-.08539.0144c-.56221.0759-1.12441-.0397-1.61901-.3289-.59778-.3507-1.02477-.9146-1.20269-1.5905l-.3487-1.3086c-.177916-.676-.08896-1.3845.25619-1.9918.29889-.5313.76147-.929 1.32011-1.1422.06761-.4085.20994-.8025.41276-1.1604.47325-.83501 1.24183-1.40977 2.10648-1.64473 3.02807-.82779 3.08145-.75188 4.03861-1.40616l5.49043-4.17872c.6653-1.4423 1.6759-2.382153 2.9355-2.72556 1.6261-.4446211 3.3946.191585 4.978 1.78933 1.5016 1.5146 2.7043 3.77386 3.3875 6.35483.6547 2.47251.7436 4.96311.2526 7.00551-.5551 2.3135-1.7863 3.8389-3.4729 4.3016-.1672.047-.3416.0795-.5123.1048-1.1067.1482-2.2702-.1879-3.3733-.9687l-5.9921-.723.5587 2.1147c.4661 1.7604-.5587 3.5678-2.2951 4.0413s-3.51554-.5639-3.97811-2.3243z" fill="#fff"/></svg>

<svg width="27" height="25" viewBox="0 0 27 25" fill="none" xmlns="http://www.w3.org/2000/svg">
<path d="M6.5579 22.1949L5.75729 19.173C5.00294 19.0392 4.24859 18.6307 3.70062 17.962C3.67216 17.9656 3.64369 17.9728 3.61522 17.9764C3.04946 18.0487 2.49082 17.9367 1.99622 17.6475C1.39844 17.2969 0.971445 16.733 0.793533 16.057L0.444824 14.7484C0.266912 14.0725 0.355868 13.364 0.701018 12.7567C0.999911 12.2253 1.46248 11.8277 2.02113 11.6144C2.08874 11.2059 2.23107 10.8119 2.43389 10.454C2.90713 9.61902 3.67572 9.04426 4.54037 8.8093C7.56844 7.98151 7.62181 8.05742 8.57898 7.40314L14.0694 3.22442C14.7348 1.78212 15.7453 0.842267 17.0049 0.498861C18.631 0.0542394 20.3995 0.690445 21.9829 2.28819C23.4845 3.80279 24.6872 6.06205 25.3704 8.64302C26.0251 11.1155 26.114 13.6061 25.623 15.6485C25.0679 17.962 23.8368 19.4874 22.1501 19.9501C21.9829 19.9971 21.8086 20.0297 21.6378 20.055C20.5311 20.2032 19.3676 19.867 18.2645 19.0862L12.2724 18.3632L12.8311 20.4779C13.2972 22.2383 12.2724 24.0457 10.536 24.5193C8.80315 24.9964 7.02047 23.9553 6.5579 22.1949Z" fill="#9B47B0" stroke="#9B47B0" stroke-width="0.364641" stroke-miterlimit="10"/>
<path d="M7.26969 22.1949L6.46908 19.1729C5.71473 19.0392 4.96038 18.6307 4.41241 17.962C4.38395 17.9656 4.35548 17.9728 4.32702 17.9764C3.76481 18.0523 3.20261 17.9367 2.70801 17.6475C2.11023 17.2968 1.68324 16.7329 1.50532 16.057L1.15662 14.7484C0.978704 14.0724 1.06766 13.3639 1.41281 12.7566C1.7117 12.2253 2.17428 11.8276 2.73292 11.6144C2.80053 11.2059 2.94286 10.8119 3.14568 10.454C3.61893 9.61899 4.38751 9.04423 5.25216 8.80927C8.28023 7.98148 8.33361 8.05739 9.29077 7.40311L14.7812 3.22439C15.4465 1.78209 16.4571 0.842237 17.7167 0.49883C19.3428 0.0542089 21.1113 0.690415 22.6947 2.28816C24.1963 3.80276 25.399 6.06202 26.0822 8.64299C26.7369 11.1155 26.8258 13.6061 26.3348 15.6485C25.7797 17.962 24.5485 19.4874 22.8619 19.9501C22.6947 19.9971 22.5203 20.0296 22.3496 20.0549C21.2429 20.2031 20.0794 19.867 18.9763 19.0862L12.9842 18.3632L13.5429 20.4779C14.009 22.2383 12.9842 24.0457 11.2478 24.5192C9.51494 24.9964 7.73226 23.9553 7.26969 22.1949Z" fill="white" stroke="#9B47B0" stroke-width="0.364641" stroke-miterlimit="10"/>
</svg>
